packages/foundations/icons/Activities/Hiking.svg

<svg width="24" height="24" viewBox="0 0 24 24" fill="none" xmlns="http://www.w3.org/2000/svg">
<path fill-rule="evenodd" clip-rule="evenodd" d="M11.5004 6C12.605 6 13.5004 5.10457 13.5004 4C13.5004 2.89543 12.605 2 11.5004 2C10.3958 2 9.5004 2.89543 9.5004 4C9.5004 5.10457 10.3958 6 11.5004 6Z" fill="#3D474D"/>
<path d="M7.73708 8.07463C7.7756 7.52369 7.36021 7.04583 6.80927 7.00731C6.25833 6.96878 5.78048 7.38418 5.74195 7.93512L5.46292 11.9254C5.4244 12.4763 5.83979 12.9542 6.39073 12.9927C6.94167 13.0312 7.41953 12.6158 7.45805 12.0649L7.73708 8.07463Z" fill="#3D474D"/>
<path d="M11.2403 14.155C11.326 13.47 10.8401 12.8453 10.155 12.7597C9.56198 12.6855 9.0141 13.0398 8.82212 13.5807C8.81041 14.5173 9.32258 15.5523 10.0852 16.097L10.9222 16.7003L11.2403 14.155Z" fill="#3D474D"/>
<path fill-rule="evenodd" clip-rule="evenodd" d="M14.6489 16.5076C14.5588 16.2973 14.4127 16.1158 14.2265 15.9828L11.5383 14.0627C11.4442 13.9954 11.3139 13.7176 11.3223 13.6087L11.5374 10.631L12.5509 11.8135C12.7884 12.0905 13.1351 12.25 13.5 12.25H16.2846L19.0221 21.147C19.1033 21.411 19.3831 21.5591 19.647 21.4779C19.911 21.3967 20.0591 21.1169 19.9779 20.853L17.3183 12.2091C17.8545 12.0684 18.25 11.5804 18.25 11C18.25 10.3096 17.6904 9.75 17 9.75L16.563 9.75469L15.9779 7.85296C15.8967 7.58903 15.6169 7.4409 15.353 7.52211C15.089 7.60332 14.9409 7.88311 15.0221 8.14704L15.5202 9.76589L14.1016 9.78111L12.1 7.44596C11.0113 6.17583 9.30056 6.73904 9.18307 8.40495L8.82904 13.4249C8.82507 13.4764 8.82278 13.5284 8.82212 13.5807C8.79236 13.6646 8.77115 13.753 8.75965 13.845L8.29014 17.3811L5.69977 19.5397C5.16942 19.9817 5.09777 20.7699 5.53972 21.3002C5.98168 21.8306 6.76989 21.9022 7.30023 21.4603L10.3002 18.9603C10.5437 18.7574 10.701 18.4695 10.7403 18.155L10.9222 16.7003L12.4985 17.8365L13.8511 20.9924C14.123 21.6269 14.8579 21.9209 15.4924 21.6489C16.1269 21.377 16.4209 20.6421 16.1489 20.0076L14.6489 16.5076ZM15.5202 9.76589L16.2846 12.25H17C17.11 12.25 17.2166 12.2358 17.3183 12.2091L16.563 9.75469L15.5202 9.76589ZM11.2403 14.155L10.9222 16.7003L10.0852 16.097C9.32258 15.5523 8.81041 14.5173 8.82212 13.5807C9.0141 13.0398 9.56198 12.6855 10.155 12.7597C10.8401 12.8453 11.326 13.47 11.2403 14.155Z" fill="#3D474D"/>
<path d="M15.5202 9.76589L16.2846 12.25H17C17.11 12.25 17.2166 12.2358 17.3183 12.2091L16.563 9.75469L15.5202 9.76589Z" fill="#3D474D"/>
</svg>

<svg width="24" height="24" fill="none" xmlns="http://www.w3.org/2000/svg"><path fill-rule="evenodd" clip-rule="evenodd" d="M11.5 6a2 2 0 100-4 2 2 0 000 4z" fill="#3D474D"/><path d="M7.737 8.075a1 1 0 00-1.995-.14l-.28 3.99a1 1 0 001.996.14l.28-3.99zM11.24 14.155a1.25 1.25 0 00-2.418-.574c-.012.936.5 1.971 1.263 2.516l.837.603.318-2.545z" fill="#3D474D"/><path fill-rule="evenodd" clip-rule="evenodd" d="M14.649 16.508a1.25 1.25 0 00-.422-.525l-2.689-1.92c-.094-.068-.224-.345-.216-.454l.215-2.978 1.014 1.182c.237.277.584.437.949.437h2.785l2.737 8.897a.5.5 0 10.956-.294l-2.66-8.644A1.25 1.25 0 0017 9.75l-.437.005-.585-1.902a.5.5 0 10-.956.294l.498 1.619-1.418.015L12.1 7.446c-1.089-1.27-2.8-.707-2.917.959l-.354 5.02a2.426 2.426 0 00-.007.156c-.03.084-.05.172-.062.264l-.47 3.536L5.7 19.54a1.25 1.25 0 001.6 1.92l3-2.5c.244-.203.401-.49.44-.805l.182-1.455 1.576 1.137 1.353 3.155a1.25 1.25 0 102.298-.984l-1.5-3.5zm.871-6.742l.765 2.484H17c.11 0 .217-.014.318-.04l-.755-2.455-1.043.01zm-4.28 4.389l-.318 2.545-.837-.603c-.762-.545-1.275-1.58-1.263-2.516a1.25 1.25 0 012.418.574z" fill="#3D474D"/><path d="M15.52 9.766l.765 2.484H17c.11 0 .217-.014.318-.04l-.755-2.455-1.043.01z" fill="#3D474D"/></svg>
